X: 1501
T: Granddad's Towong Hotel
C:Con Klippel (1909-1975)
B: australian traditional tunes wiki
M:4/4
L:1/8
R: Schottische
Q: 1/4=100
K:C
V:1 
G>F|"C"E>G c>de2e2|"G7"d>^c d>e "F"A2z2|"G7"B>A B>dg2g2|"C"(3GAB (3cde "G7"g2g2|
"C"G>E c>Ge2e2|"G7"(3GBA G>cf2f2|(3GBA G>cf2f2|g>f e>d "C"c2(3EF^F|
"C"G>^F G>F"C"G2e>e|"F"d>c c>A "C"c2B>A|G>G c>d e>e|(3edc|"G7"d6(3EF^F|
"C"G>^F G>F"C"G2e>e|"F"d>c c>A "C"c2B>A|"G7"G>G B>e d>d A>B|"C"c6d>e|
"F"f>e f>ef2G>c|"C"e>d e>d e2z2|"D7"d>c d>c d>A B>c|d>c d>^d "G7"=d2 (3EF^F|
"C"G>^F G>F G2e>e|"F"d>c c>A "C"c2 B>A|"G7"G>G B>e d>d A>B|"C"c6||
% abcbook-tune_id 6342d53a477cf9b7d7ba907b


% abcbook-boost 0
% abcbook-tablature 
% abcbook-transpose 
% abcbook-lastupdated 1665324368108
% abcbook-soundfonts 
% abcbook-repeats 1
% NFF Book 2018

